X:164
T:Goulds Hornpipe TS.164
T:Merry Sherwood Rangers, aka TS.164
T:Durham Rangers,aka TS.164
M:C
L:1/8
Q:1/2=90
S:Thomas Sands’ MS,1810,Lincolnshire
R:.hornpipe
O:England;Lincolnshire
Z:vmp.Ruairidh Greig, 2011
K:D
FG|ABAFD2de|fgfe d2Bc|dedB ABAF|G2E2E2FG|
ABAFD2de|fgef d2Bc|dedB ABAG|F2D2D2:|
|:de|fefg afdf|gfed ceAc|dfaf g2bg|f2af g2ee|
defg abaf|gfed ceAc|dedB ABAG|F2D2D2:|]

